!! 00000] TT[WS
!!!OTL: Fang fengzheng
!!!ARE: Asia, China,ÿShanxi Licheng
!! Ethnic Group: Han
!! WI, 219
!!!SCT: J0260
!!!YEM: Copyright 1995, estate of Helmut Schaffrath.
**kern
*ICvox
*Ivox
*M2/4
*k[f#]
*G:
{16dd
16gg
16ee
16dd
16dd
16b
16a
16b
=1
16dd
16gg
16ee
16dd
16dd
16b
16a
16b
=2
8.g
16e
16dd
16gg
16ee
16dd
=3
16dd
16b
16a
16e
4g}
=4
{16g
16a
8b
8gg
16ee
16dd
=5
16g
16a
16b
16b
16dd
16b
16a
16g
=6
16g
16e
8d
8dd
16e
16g
=7
16a
16b
16g
16e
4d}
=8
{16g
16a
16b
16b
16dd
16b
16a
16g
=9
16g
16e
8d
8dd
16e
16g
=10
16a
16b
16g
16e
4d}
==
!!!AGN: Xiaodiao. Qingge, Sichun
!!!ONB: ESAC (Essen Associative Code) Database: CHINA
!!!AMT: simple duple
!!!AIN: vox
!!!EED: Helmut Schaffrath
!!!EEV: 1.0
*-
